X: 117
T:The King's Jig
R:jig
Z: added by Alf 
M:6/8
L:1/8
Q:3/8=120
K:G
|G2G AGA| Bcd efg|GFG AGA| BGE E2D|
G2G AGA| Bcd efg|dcB AGA|[1 BGE G2D:|[2 BGE GBd|
gfg e2e| edB def|gfg aga| bag e2f|
gfg a2a| bag efg|dcB AGA|[1 AGE GBd|[2 AGE G2E|
DGG BGG| AGG BGG|efg dcB| AGA AGE|
DGG BGG| AGG BGG|efg dcB|[1 AGE G2E:|[2 AGE G2B|
efg fBB| bag fBB|eBB fBB| gfe fdB|
efg fBB| bag fBB|efg fdB|[1 e/f/gf e2d:|[2 e/f/gf edB|]
